X:1
%
T:Mrs. Warren Hastings Anderson
M:C
L:1/8
R:Strathspey
Q:"Slowly"
C:Nathaniel Gow (1763-1831)
B:Gow – Sixth Collection of Strathspey Reels (1822)
Z:AK/Fiddler’s Companion
K:G
c|TB>c dd gd e2|dB c2 B(GFD)|TB>c dd g(de)(c|B)(GA)F G2 G,d|
TB>c dd gd e2|dB c2 (BG).F.D|TB>c dd g(de)(c|B)(GA).F G2G,||
c|TB>cdd gd b2|afge d^c d2|TB>cdd gd e2|(dB)cA G2 Gc|
TB>cdd gd b2|afge d^c d2|TB>c dd gd e2|dBcA G2G||
|:D|.G/.A/.B/.G/ A/B/c/A/ B/c/d/B/ c/d/e/f/|g/d/e/d/ c/B/A/G/ F/G/A/F/ DE/F/|G/A/B/G/ A/B/c/A/ B/c/d/B/ c/d/e/f/|
g/d/e/B/ c/A/d/F/ G2 G:||d|g/a/b/g/ d/e/f/d/ e/f/g/e/ B/c/d/B/|c/d/e/f/ g/d/B/G/|
F/G/A/F/ D>d|g/a/b/g/ d/e/f/d/ e/f/g/e/ B/c/d/B/|Tc/B/c/e/ d/B/c/A/ {F}G2 G.>d|
g/a/b/g/ d/e/f/d/ e/f/g/e/ B/c/d/B/|c/d/e/f/ g/d/B/G/ F/G/A/F/ D>D|
G/D/B,/G/ A/F/D/c/|B/G/B/d/ c/A/c/e/|d/B/c/A/ B/G/A/F/ G2 G,||

